Adwaita++-Dark/status/symbolic/sensors-fan-symbolic.svg

<svg height="16" width="16" xmlns="http://www.w3.org/2000/svg">
  <path d="m1 0c-.554 0-1 .446-1 1v14c0 .554.446 1 1 1h14c.554 0 1-.446 1-1v-14c0-.554-.446-1-1-1zm.5 1a.5.5 0 0 1 .5.5.5.5 0 0 1 -.5.5.5.5 0 0 1 -.5-.5.5.5 0 0 1 .5-.5zm6.5 0a7 7 0 0 1 7 7 7 7 0 0 1 -7 7 7 7 0 0 1 -7-7 7 7 0 0 1 7-7zm6.5 0a.5.5 0 0 1 .5.5.5.5 0 0 1 -.5.5.5.5 0 0 1 -.5-.5.5.5 0 0 1 .5-.5zm-5.498 1.1016c-.5531-.0011-1.0019.4469-1.002 1v1.8984a3 3 0 0 1 2.344 1.1289c.789-.1705 1.455-.3276 2.129-.4863.894-.2108.533-.9895.175-1.4297-.873-1.0736-2.091-1.8135-3.4468-2.0918-.0656-.0132-.1324-.0196-.1992-.0195zm-3.9883.8711c-.2761.0231-.5807.2022-.8008.3808-1.0736.8736-1.8135 2.0915-2.0918 3.4473-.013.066-.0195.1323-.0195.1992-.001.5531.447 1.0019 1 1.002h1.8984a3 3 0 0 1 1.1289-2.3438c-.1705-.7895-.3276-1.4554-.4863-2.1289-.1055-.4471-.3529-.5798-.6289-.5566zm2.9863 3.0273a2 2 0 0 0 -2 2 2 2 0 0 0 2 2 2 2 0 0 0 2-2 2 2 0 0 0 -2-2zm2.998 1.998a3 3 0 0 1 -1.1289 2.344c.1709.789.3279 1.455.4859 2.129.211.894.99.533 1.43.175 1.074-.873 1.814-2.091 2.092-3.4468.013-.066.02-.1323.019-.1992.001-.5531-.446-1.0019-1-1.002zm-5.3437 1.875c-.7895.171-1.4554.328-2.1289.486-.8942.211-.533.99-.1758 1.43.8736 1.074 2.0915 1.814 3.4473 2.092.066.013.1323.019.1992.019.5531.001 1.0018-.447 1.0019-1v-1.898a3 3 0 0 1 -2.3437-1.129zm-4.1543 4.127a.5.5 0 0 1 .5.5.5.5 0 0 1 -.5.5.5.5 0 0 1 -.5-.5.5.5 0 0 1 .5-.5zm13 0a.5.5 0 0 1 .5.5.5.5 0 0 1 -.5.5.5.5 0 0 1 -.5-.5.5.5 0 0 1 .5-.5z" fill="#e6ddff"/>
</svg>

<svg xmlns="http://www.w3.org/2000/svg" width="16" height="16" version="1.1">
 <path style="fill:#E6DDFF" d="M 1,0 C 0.446,0 0,0.446 0,1 V 15 C 0,15.554 0.446,16 1,16 H 15 C 15.554,16 16,15.554 16,15 V 1 C 16,0.446 15.554,0 15,0 Z M 1.5,1 A 0.5,0.5 0 0 1 2,1.5 0.5,0.5 0 0 1 1.5,2 0.5,0.5 0 0 1 1,1.5 0.5,0.5 0 0 1 1.5,1 Z M 8,1 A 7,7 0 0 1 15,8 7,7 0 0 1 8,15 7,7 0 0 1 1,8 7,7 0 0 1 8,1 Z M 14.5,1 A 0.5,0.5 0 0 1 15,1.5 0.5,0.5 0 0 1 14.5,2 0.5,0.5 0 0 1 14,1.5 0.5,0.5 0 0 1 14.5,1 Z M 9.002,2.1016 C 8.4489,2.1005 8.0001,2.5485 8,3.1016 V 5 A 3,3 0 0 1 10.344,6.1289 C 11.133,5.9584 11.799,5.8013 12.473,5.6426 13.367,5.4318 13.006,4.6531 12.648,4.2129 11.775,3.1393 10.557,2.3994 9.2012,2.1211 9.1356,2.1079 9.0688,2.1015 9.002,2.1016 Z M 5.0137,2.9727 C 4.7376,2.9958 4.433,3.1749 4.2129,3.3535 3.1393,4.2271 2.3994,5.445 2.1211,6.8008 2.1081,6.8668 2.1016,6.9331 2.1016,7 2.1006,7.5531 2.5486,8.0019 3.1016,8.002 H 5 A 3,3 0 0 1 6.1289,5.6582 C 5.9584,4.8687 5.8013,4.2028 5.6426,3.5293 5.5371,3.0822 5.2897,2.9495 5.0137,2.9727 Z M 8,6 A 2,2 0 0 0 6,8 2,2 0 0 0 8,10 2,2 0 0 0 10,8 2,2 0 0 0 8,6 Z M 10.998,7.998 A 3,3 0 0 1 9.8691,10.342 C 10.04,11.131 10.197,11.797 10.355,12.471 10.566,13.365 11.345,13.004 11.785,12.646 12.859,11.773 13.599,10.555 13.877,9.1992 13.89,9.1332 13.897,9.0669 13.896,9 13.897,8.4469 13.45,7.9981 12.896,7.998 Z M 5.6543,9.873 C 4.8648,10.044 4.1989,10.201 3.5254,10.359 2.6312,10.57 2.9924,11.349 3.3496,11.789 4.2232,12.863 5.4411,13.603 6.7969,13.881 6.8629,13.894 6.9292,13.9 6.9961,13.9 7.5492,13.901 7.9979,13.453 7.998,12.9 V 11.002 A 3,3 0 0 1 5.6543,9.873 Z M 1.5,14 A 0.5,0.5 0 0 1 2,14.5 0.5,0.5 0 0 1 1.5,15 0.5,0.5 0 0 1 1,14.5 0.5,0.5 0 0 1 1.5,14 Z M 14.5,14 A 0.5,0.5 0 0 1 15,14.5 0.5,0.5 0 0 1 14.5,15 0.5,0.5 0 0 1 14,14.5 0.5,0.5 0 0 1 14.5,14 Z"/>
</svg>
